X:47
T:Miss Russell (of Blackhall's) Reel
C:"By R. Mackintosh"
S:Petrie's Second Collection of Strathspey Reels and Country Dances &c.
Z:Steve Wyrick , 6/11/04
N:Petrie's Second Collection, page 16
L:1/8
M:6/8
R:Jig
K:Bb
D|(TG^FG) (TBAB)|(TG^FG) (D2=E) |(TF=EF) fcA |cAF  FGA |\
  (TG^FG) (TBAB)|(Td^cd) (Tg^fg)|dcB     cBA |G3   G2 :|
d| gdb     ag^f |g3      (d2=e) |fca     gf=e|fAB (cBA)|\
   gdb     ag^f |g3       gfe   |dcB     cBA |BGG   G2d|
   gdb     ag^f |gdb      ag^f  |fca     gf=e|fAB  cBA |\
   BAG      cBA |dcB      edc   |dba     ga^f|g3   G2 |]
